X:1
T: Lessley House
C:
R:Jig
Q:180
K:Bb
M:6/8
L:1/16
B,2|F6 B2A2G2|F2E2D2 C2D2B,2|E2F2G2 F2E2D2|G2E2C2 C4DE|F2D2F2 B2A2G2|F2B2F2 D2E2F2|G2A2B2 A2B2c2|d2B2B2 B4B,2|
F6 B2A2G2|F2E2D2 C2D2B,2|E2F2G2 F2E2D2|G2E2C2 C4DE|F2D2F2 B2A2G2|F2B2F2 D2E2F2|G2A2B2 A2B2c2|d2B2B2 B4g2|
f2d2B2 f2d2B2|c2A2F2 c2A2F2|E2F2G2 F2E2D2|G2E2C2 C4g2|f2d2B2 f2d2B2|c2A2F2 c2A2F2|G2A2B2 c2d2e2|d2B2B2 B4g2|
f2d2B2 f2d2B2|c2A2F2 c2A2F2|E2F2G2 F2E2D2|G2E2C2 C2D2E2|F2E2D2 G2F2E2|A2G2F2 B2A2G2|A2B2c2 F2e2c2|d2B2B2 B4||
